packages/ui-icons/src/Basic/32/Mobile-internet_32.svg

<svg xmlns="http://www.w3.org/2000/svg" viewBox="0 0 40 40"><path d="M20 4a16.06 16.06 0 0 1 13.86 8l-1.73 1a14 14 0 1 0 0 14l1.73 1A16 16 0 1 1 20 4Zm-2 22v-2h1v-2h-1v-3h-2v3h-3.71l2.47-7.69-1.9-.61L10 22.6l.92 1.4H16v2Zm19-5h3v-2h-3v-3h-2v3h-3v2h3v3h2Zm-8.6-4.2 1.2-1.6a6 6 0 1 0 0 9.59l.4-.3V19h-4v2h2v2.46a4.08 4.08 0 0 1-4.83-.64 4 4 0 0 1 0-5.65 4.08 4.08 0 0 1 5.23-.37Z"/></svg>

<svg id="Ready" xmlns="http://www.w3.org/2000/svg" viewBox="0 0 40 40"><title>Megaicons_work_32_1.8_cp</title><path d="M20,4a16.06,16.06,0,0,1,13.86,8l-1.73,1a14,14,0,1,0,0,14l1.73,1A16,16,0,1,1,20,4ZM18,26V24h1V22H18V19H16v3H12.29l2.47-7.69-1.9-.61L10,22.6l.92,1.4H16v2Zm19-5h3V19H37V16H35v3H32v2h3v3h2ZM28.4,16.8l1.2-1.6a6,6,0,1,0,0,9.59l.4-.3V19H26v2h2v2.46a4.08,4.08,0,0,1-4.83-.64,4,4,0,0,1,0-5.65A4.08,4.08,0,0,1,28.4,16.8Z"/></svg>
